X: 116
T:Bouzer Castle
M:6/4
L:1/4
Z:vmp. Peter Dunk 2013 www.village-music-project.org.uk
S:Walsh, Compleat Country Dancing Master, 3rd Series, 1st Book, 4th Ed., 1754
Q:3/4=100
K:D
"D"F2(A A)FA|"G"B2(d d)BG|"D"F2(A A)FD|"A"E3A,3|
"D"F2(A A)FA|"G"B2(d d)Bd|"D"faf "A"ecA|"D"d3D3||
"D"F2(A A)FA|"A"c2(e e)AG|"D"F2(A A)FD|"A"E3A,3|
"D"F2(A A)FA|"G"B2(d d)Bd|"D"faf "A"ecA|"D"d3D3|]

